_files/assets/icon-download.svg

<?xml version="1.0" encoding="UTF-8" standalone="no"?>
<svg width="20px" height="21px" viewBox="0 0 20 21" version="1.1" xmlns="http://www.w3.org/2000/svg" xmlns:xlink="http://www.w3.org/1999/xlink">
    <!-- Generator: Sketch 45.1 (43504) - http://www.bohemiancoding.com/sketch -->
    <title>download-24-px</title>
    <desc>Created with Sketch.</desc>
    <defs></defs>
    <g id="Web" stroke="none" stroke-width="1" fill="none" fill-rule="evenodd">
        <g id="Post" transform="translate(-534.000000, -2912.000000)" fill-rule="nonzero" fill="#4A90E2">
            <g id="In-Copy-CTA" transform="translate(499.000000, 2877.000000)">
                <g id="Group-3">
                    <g id="Group-2-Copy">
                        <g id="download-24-px" transform="translate(35.000000, 35.000000)">
                            <path d="M19.5,21 L1.5,21 C0.95,21 0,20.55 0,20 L0,15 C-6.76353751e-17,14.4477153 0.44771525,14 1,14 C1.55228475,14 2,14.4477153 2,15 L2,19 L18,19 L18,15 C18,14.4477153 18.4477153,14 19,14 C19.5522847,14 20,14.4477153 20,15 L20,20 C20,20.55 20.05,21 19.5,21 Z" id="Shape"></path>
                            <path d="M18,7.55 C17.6099625,7.16227641 16.9800375,7.16227641 16.59,7.55 L11.48,12.47 L11.48,0.89 C11.4759381,0.63641703 11.3650731,0.396317585 11.1746805,0.228772112 C10.984288,0.0612266387 10.7320415,-0.0182120292 10.48,0.01 L10.48,0.01 C10.2296539,-0.0180832283 9.97899706,0.0600422093 9.78894052,0.225391402 C9.59888398,0.390740594 9.48682698,0.628176178 9.48,0.88 L9.48,12.4 L4.48,7.54 C4.21919612,7.2845551 3.84192516,7.18765149 3.49030145,7.28579182 C3.13867774,7.38393216 2.86612127,7.66220659 2.77530144,8.01579183 C2.68448161,8.36937707 2.78919611,8.7445551 3.05,9 L9.74,15.51 L9.74,15.51 L9.74,15.51 C9.80175771,15.5576643 9.86888082,15.5979382 9.94,15.63 L9.94,15.63 L10.08,15.63 L10.13,15.63 L10.32,15.63 L10.51,15.63 L10.51,15.63 C10.6970437,15.5958931 10.8704883,15.5091709 11.01,15.38 L17.94,9 C18.1467648,8.81956395 18.2702923,8.56208532 18.2816381,8.28789537 C18.2929839,8.01370542 18.1911508,7.74690153 18,7.55 Z" id="Shape"></path>
                        </g>
                    </g>
                </g>
            </g>
        </g>
    </g>
</svg>

<svg xmlns="http://www.w3.org/2000/svg" width="20" height="21">
  <g fill="#4A90E2">
    <path d="M19.5 21h-18C.95 21 0 20.55 0 20v-5c0-.552.448-1 1-1s1 .448 1 1v4h16v-4c0-.552.448-1 1-1s1 .448 1 1v5c0 .55.05 1-.5 1z"/>
    <path d="M18 7.55c-.39-.388-1.02-.388-1.41 0l-5.11 4.92V.89c-.004-.254-.115-.494-.305-.66-.19-.17-.443-.248-.695-.22-.25-.028-.5.05-.69.215-.19.166-.303.403-.31.655V12.4l-5-4.86c-.26-.255-.638-.352-.99-.254-.35.098-.624.376-.715.73-.09.353.014.73.275.984l6.69 6.51c.062.048.13.088.2.12h.57c.187-.034.36-.12.5-.25L17.94 9c.207-.18.33-.438.342-.712.01-.274-.09-.54-.282-.738z"/>
  </g>
</svg>
